lib/brands/logos/google-g-suite.svg

<svg xmlns="http://www.w3.org/2000/svg" fill="none" aria-hidden="true" viewBox="0 0 223 61"><g id="Google GSuite"><path id="Vector" fill="#737373" d="M46.8512 19.4153C45.2609 17.7905 43.5323 16.5459 41.7 15.6816C39.8677 14.8173 37.5515 14.4025 34.8895 14.4025C32.746 14.4025 30.7063 14.7828 28.8049 15.5433C26.9034 16.3039 25.244 17.3756 23.8266 18.7585C22.3746 20.1413 21.2337 21.8354 20.404 23.8059C19.5743 25.7765 19.1594 27.9545 19.1594 30.3745C19.1594 32.7945 19.5743 34.9725 20.404 36.9431C21.2337 38.9137 22.3746 40.5731 23.8266 41.956C25.2786 43.3388 26.9726 44.4451 28.874 45.2057C30.7754 45.9663 32.8497 46.3465 35.0277 46.3465C37.344 46.3465 39.3837 46.0354 41.1123 45.3785C42.8409 44.7217 44.3275 43.8228 45.572 42.7165C46.4018 41.956 47.1623 41.0225 47.8192 39.9162C48.4761 38.7754 48.9946 37.5308 49.3749 36.148H34.7512V27.8508H58.6055C58.7438 28.4039 58.8475 29.0608 58.9512 29.8905C59.0549 30.7202 59.0895 31.4808 59.0895 32.2759C59.0895 35.5602 58.6055 38.5334 57.6375 41.2645C56.6695 43.9957 55.1829 46.3811 53.2469 48.49C51.0689 50.8063 48.4761 52.5694 45.4338 53.8486C42.3915 55.1277 38.8997 55.75 34.9932 55.75C31.4669 55.75 28.148 55.1277 25.0366 53.8486C21.9251 52.5694 19.194 50.8063 16.8431 48.5591C14.5268 46.312 12.6946 43.65 11.3117 40.5731C9.92883 37.4962 9.27197 34.0737 9.27197 30.4091C9.27197 26.7445 9.9634 23.3565 11.3117 20.2451C12.66 17.1336 14.4923 14.4716 16.8431 12.2245C19.1594 9.97733 21.8906 8.24875 25.0366 6.96961C28.1826 5.69046 31.5014 5.06818 34.9932 5.06818C39.0035 5.06818 42.5643 5.75961 45.6412 7.14247C48.7181 8.52533 51.3801 10.4268 53.6272 12.8468L46.8512 19.4153ZM108.146 41.6794C108.146 45.9317 106.591 49.3543 103.479 51.9471C100.333 54.4708 96.4959 55.75 91.967 55.75C87.9567 55.75 84.3958 54.5746 81.319 52.2237C78.2421 49.8728 76.1333 46.6577 74.9578 42.6128L80.9041 40.1582C81.319 41.6102 81.8721 42.924 82.5981 44.0994C83.3241 45.2748 84.1538 46.2774 85.1218 47.1071C86.0898 47.9368 87.1616 48.5937 88.337 49.0777C89.5124 49.5617 90.757 49.8037 92.0707 49.8037C94.9056 49.8037 97.2564 49.0777 99.0542 47.5911C100.852 46.1391 101.751 44.1685 101.751 41.7485C101.751 39.7088 100.99 37.9802 99.5036 36.5282C98.1207 35.1454 95.4933 33.7625 91.6559 32.4488C87.7838 31.0659 85.3638 30.0979 84.3958 29.6139C79.2447 26.9865 76.6864 23.1491 76.6864 18.0325C76.6864 14.4716 78.1038 11.4293 80.9387 8.90561C83.8427 6.38189 87.369 5.10275 91.5867 5.10275C95.2859 5.10275 98.501 6.03618 101.198 7.93761C103.894 9.80447 105.726 12.1208 106.625 14.9211L100.852 17.3065C100.299 15.5088 99.227 13.9876 97.6367 12.8122C96.0464 11.6022 94.0759 11.0145 91.7941 11.0145C89.3396 11.0145 87.2998 11.7059 85.6404 13.0542C83.981 14.2988 83.1513 15.9582 83.1513 17.9633C83.1513 19.6228 83.8081 21.0748 85.1218 22.2848C86.5738 23.4948 89.7198 24.9468 94.5253 26.6062C99.4344 28.2657 102.961 30.3399 105.07 32.7599C107.109 35.1799 108.146 38.1531 108.146 41.6794ZM142.683 54.6437H136.737V50.0457H136.461C135.527 51.6706 134.041 53.0188 132.105 54.1251C130.134 55.1968 128.094 55.75 125.985 55.75C121.906 55.75 118.794 54.5746 116.616 52.2583C114.438 49.942 113.332 46.6231 113.332 42.3363V21.4551H119.555V41.9214C119.693 47.3491 122.424 50.0457 127.748 50.0457C130.238 50.0457 132.312 49.0431 133.971 47.038C135.631 45.0328 136.461 42.6128 136.461 39.8125V21.4551H142.683V54.6437ZM156.892 10.0119C156.892 11.2219 156.477 12.259 155.613 13.1233C154.749 13.9876 153.712 14.4025 152.502 14.4025C151.292 14.4025 150.255 13.9876 149.39 13.1233C148.526 12.259 148.111 11.2219 148.111 10.0119C148.111 8.8019 148.526 7.76475 149.39 6.90047C150.255 6.03618 151.292 5.62132 152.502 5.62132C153.712 5.62132 154.749 6.03618 155.613 6.90047C156.477 7.76475 156.892 8.8019 156.892 10.0119ZM155.613 21.4551V54.6437H149.39V21.4551H155.613ZM174.731 55.1968C172.035 55.1968 169.787 54.3671 167.99 52.7077C166.192 51.0483 165.293 48.6974 165.259 45.7243V27.1594H159.416V21.4551H165.224V11.291H171.447V21.4551H179.571V27.1594H171.447V43.6845C171.447 45.8971 171.862 47.3837 172.726 48.1788C173.59 48.974 174.558 49.3543 175.63 49.3543C176.114 49.3543 176.598 49.2851 177.082 49.1814C177.566 49.0777 177.981 48.9048 178.396 48.732L180.366 54.298C178.811 54.8857 176.909 55.1968 174.731 55.1968ZM198.032 55.7154C193.158 55.7154 189.147 54.056 185.967 50.7026C182.821 47.3491 181.231 43.1314 181.231 38.0494C181.231 33.0019 182.752 28.7842 185.829 25.4308C188.905 22.0774 192.812 20.3833 197.617 20.3833C202.527 20.3833 206.468 21.9736 209.372 25.1542C212.276 28.3348 213.728 32.7945 213.728 38.5334L213.659 39.2248H187.592C187.695 42.4745 188.767 45.102 190.841 47.0725C192.916 49.0431 195.405 50.0457 198.309 50.0457C202.285 50.0457 205.396 48.0751 207.643 44.0994L213.209 46.796C211.723 49.5963 209.648 51.7743 207.021 53.3646C204.359 54.9203 201.351 55.7154 198.032 55.7154ZM188.076 34.0391H207.125C206.952 31.7228 206.018 29.8214 204.324 28.3002C202.63 26.7791 200.349 26.0185 197.514 26.0185C195.163 26.0185 193.158 26.7445 191.464 28.1965C189.735 29.6831 188.629 31.6191 188.076 34.0391Z"/></g></svg>

<svg xmlns="http://www.w3.org/2000/svg" fill="none" aria-hidden="true" viewBox="0 0 223 61"><path fill="#737373" d="M46.851 19.415c-1.59-1.625-3.319-2.87-5.151-3.733-1.832-.865-4.149-1.28-6.81-1.28-2.144 0-4.184.38-6.085 1.141a15.053 15.053 0 0 0-4.978 3.215c-1.452 1.383-2.593 3.077-3.423 5.048-.83 1.97-1.245 4.148-1.245 6.569 0 2.42.415 4.597 1.245 6.568.83 1.97 1.97 3.63 3.423 5.013a15.813 15.813 0 0 0 5.047 3.25c1.901.76 3.976 1.14 6.154 1.14 2.316 0 4.356-.31 6.084-.967 1.729-.657 3.215-1.556 4.46-2.662.83-.761 1.59-1.694 2.247-2.8a15.977 15.977 0 0 0 1.556-3.77H34.75v-8.296h23.855c.138.553.241 1.21.345 2.04.104.83.139 1.59.139 2.385 0 3.284-.485 6.257-1.453 8.988-.968 2.732-2.454 5.117-4.39 7.226-2.178 2.316-4.77 4.08-7.813 5.358-3.042 1.28-6.534 1.902-10.44 1.902-3.527 0-6.846-.622-9.957-1.901-3.112-1.28-5.843-3.043-8.194-5.29-2.316-2.247-4.148-4.91-5.531-7.986-1.383-3.077-2.04-6.5-2.04-10.164 0-3.665.691-7.053 2.04-10.164 1.348-3.111 3.18-5.773 5.531-8.02 2.316-2.248 5.048-3.976 8.194-5.255 3.146-1.28 6.464-1.902 9.956-1.902 4.01 0 7.571.692 10.648 2.074 3.077 1.383 5.74 3.285 7.986 5.705l-6.776 6.568Zm61.295 22.264c0 4.253-1.555 7.675-4.667 10.268-3.146 2.524-6.983 3.803-11.512 3.803-4.01 0-7.571-1.175-10.648-3.526s-5.186-5.566-6.361-9.611l5.946-2.455c.415 1.452.968 2.766 1.694 3.941.726 1.176 1.556 2.178 2.524 3.008.968.83 2.04 1.487 3.215 1.97a9.71 9.71 0 0 0 3.734.727c2.835 0 5.185-.726 6.983-2.213 1.798-1.452 2.697-3.422 2.697-5.843 0-2.04-.761-3.768-2.247-5.22-1.383-1.383-4.01-2.765-7.848-4.08-3.872-1.382-6.292-2.35-7.26-2.834-5.151-2.628-7.71-6.465-7.71-11.582 0-3.56 1.418-6.603 4.253-9.126 2.904-2.524 6.43-3.803 10.648-3.803 3.699 0 6.914.933 9.611 2.835 2.696 1.866 4.528 4.183 5.427 6.983l-5.773 2.385c-.553-1.797-1.625-3.318-3.215-4.494-1.59-1.21-3.561-1.798-5.843-1.798-2.454 0-4.494.692-6.154 2.04-1.659 1.245-2.489 2.904-2.489 4.91 0 1.659.657 3.11 1.97 4.32 1.453 1.21 4.599 2.663 9.404 4.322 4.91 1.66 8.436 3.734 10.545 6.154 2.039 2.42 3.076 5.393 3.076 8.92Zm34.537 12.965h-5.946v-4.598h-.276c-.934 1.624-2.42 2.973-4.356 4.08-1.971 1.07-4.011 1.624-6.12 1.624-4.079 0-7.191-1.175-9.369-3.492-2.178-2.316-3.284-5.635-3.284-9.922V21.455h6.223v20.466c.138 5.428 2.869 8.125 8.193 8.125 2.49 0 4.564-1.003 6.223-3.008 1.66-2.005 2.49-4.425 2.49-7.225V21.454h6.222v33.189Zm14.209-44.632c0 1.21-.415 2.247-1.279 3.111-.864.865-1.901 1.28-3.111 1.28-1.21 0-2.247-.415-3.112-1.28-.864-.864-1.279-1.901-1.279-3.111 0-1.21.415-2.247 1.279-3.112.865-.864 1.902-1.279 3.112-1.279 1.21 0 2.247.415 3.111 1.28.864.864 1.279 1.9 1.279 3.11Zm-1.279 11.443v33.189h-6.223V21.455h6.223Zm19.118 33.742c-2.696 0-4.944-.83-6.741-2.49-1.798-1.659-2.697-4.01-2.731-6.983V27.16h-5.843v-5.704h5.808V11.291h6.223v10.164h8.124v5.704h-8.124v16.526c0 2.212.415 3.699 1.279 4.494.864.795 1.832 1.175 2.904 1.175a6.92 6.92 0 0 0 1.452-.173c.484-.103.899-.276 1.314-.45l1.97 5.567c-1.555.588-3.457.899-5.635.899Zm23.301.518c-4.874 0-8.885-1.66-12.065-5.013-3.146-3.353-4.736-7.57-4.736-12.653 0-5.047 1.521-9.265 4.598-12.618 3.076-3.354 6.983-5.048 11.788-5.048 4.91 0 8.851 1.59 11.755 4.771 2.904 3.18 4.356 7.64 4.356 13.38l-.069.69h-26.067c.103 3.25 1.175 5.878 3.249 7.849 2.075 1.97 4.564 2.973 7.468 2.973 3.976 0 7.087-1.97 9.334-5.947l5.566 2.697c-1.486 2.8-3.561 4.978-6.188 6.569-2.662 1.555-5.67 2.35-8.989 2.35Zm-9.956-21.676h19.049c-.173-2.316-1.107-4.218-2.801-5.739-1.694-1.521-3.975-2.282-6.81-2.282-2.351 0-4.356.726-6.05 2.178-1.729 1.487-2.835 3.423-3.388 5.843Z"/></svg>
